X: 2
T: Swingin' Through the Revolution v.2
P: piffero secondo a0790
O: a village volunteer
%R: reel
F: http://ancients.sudburymuster.org/mus/sng/pdf/swinginthruC0.pdf
Z: 2020 John Chambers <jc:trillian.mit.edu>
M: 2/4
L: 1/8
K: G
z |\
GD GG | ^cd BG | GD GG | Gd BB |\
GD GG | ^cd BG | GD GG | GB G :|
|: z |\
.D.G .B.d | .g.e dd | BB FF | BB FF |\
.D.G .B.d | .g.e dd | BB FF | GB G :|
|: z |\
DG BB | AA Fz | .D.G .B.d | ed BG |\
.D.G .B.d | .g.e dd | BB FF | GB G :|

% %sep 1 1 200
% %center - - - - - - - - - -
% Whatever we want at the bottom of each set belongs here.
